icons/linear-ele-other-sport-basketball.svg

<svg xmlns="http://www.w3.org/2000/svg" width="32px" height="32px" viewBox="0 0 32 32" version="1.1">
    <title>linear-ele-other-sport-basketball</title>
    <g id="linear-ele-other-sport-basketball" stroke-width="1" fill-rule="evenodd">
        <path d="M16,2 C23.7319865,2 30,8.2680135 30,16 C30,23.7319865 23.7319865,30 16,30 C8.2680135,30 2,23.7319865 2,16 C2,8.2680135 8.2680135,2 16,2 Z M19.2011656,17.5991514 L19.1267577,17.6550876 C17.2253595,19.1176464 16,21.4157242 16,24 C16,25.4093584 16.3643104,26.7625822 17.0442721,27.9551661 C19.3202863,27.7587513 21.4135809,26.9277829 23.1474657,25.6401157 C22.3411765,22.6949058 20.9867231,19.9759853 19.2011656,17.5991514 Z M15.9500116,14.0665141 L15.8494955,14.1962561 C14.0180525,16.5131892 11.1826579,18 8,18 C6.62463075,18 5.28941818,17.7213156 4.05956677,17.1935531 C4.61833202,22.8677949 9.13220508,27.381668 14.8076439,27.9415062 C14.2787108,26.7107077 14,25.3754343 14,24 C14,20.7585547 15.5422443,17.8773199 17.9329788,16.0500497 C17.3117716,15.3514376 16.6492082,14.6888436 15.9500116,14.0665141 Z M24,16 C22.920078,16 21.8901334,16.2139787 20.9502517,16.6018507 C22.6206056,18.8685273 23.9305887,21.4168427 24.7974935,24.1620718 C26.5626322,22.2599179 27.7192489,19.7832924 27.9552569,17.0435174 C26.7626704,16.3644456 25.4094935,16 24,16 Z M6.36077793,8.85172293 L6.3153039,8.91295586 C5.05304374,10.6349579 4.23897362,12.7060738 4.0449157,14.9544813 C5.23754535,15.6357242 6.5907082,16 8,16 C10.6178902,16 12.9420887,14.742556 14.4015589,12.7987043 C12.0238169,11.0132107 9.30531707,9.65892563 6.36077793,8.85172293 Z M17.1923561,4.05849382 L17.2540675,4.20366671 C17.7423967,5.39299075 18,6.6777885 18,8 C18,9.55420188 17.6454393,11.0255917 17.0127914,12.3376957 C17.9571956,13.1559337 18.8435059,14.0422252 19.6626731,14.9882421 C20.9744083,14.3545607 22.4457981,14 24,14 C25.3756956,14 26.7109937,14.2788494 27.940544,14.8064818 C27.381668,9.13220508 22.8677949,4.61833202 17.1923561,4.05849382 Z M14.9559632,4.04519547 L14.7916926,4.06007801 C12.1179107,4.3274185 9.70271634,5.47244598 7.83843625,7.20283383 C10.5838536,8.06975068 13.1315778,9.37951248 15.3984872,11.0482969 C15.7861721,10.1091405 16,9.07954135 16,8 C16,6.59028297 15.635407,5.23698147 14.9559632,4.04519547 Z" id="&#24418;&#29366;" fill-rule="nonzero" />
    </g>
</svg>

<svg xmlns="http://www.w3.org/2000/svg" viewBox="0 0 32 32"><path fill="currentColor" d="M16 2c7.732 0 14 6.268 14 14s-6.268 14-14 14S2 23.732 2 16 8.268 2 16 2m3.201 15.6-.074.055A7.987 7.987 0 0 0 16 24c0 1.41.364 2.763 1.044 3.955a11.938 11.938 0 0 0 6.103-2.315 23.888 23.888 0 0 0-3.946-8.04m-3.251-3.533-.1.13A9.982 9.982 0 0 1 8 18a9.974 9.974 0 0 1-3.94-.806c.558 5.674 5.072 10.188 10.748 10.748A9.963 9.963 0 0 1 14 24a9.984 9.984 0 0 1 3.933-7.95 24.058 24.058 0 0 0-1.983-1.983M24 16c-1.08 0-2.11.214-3.05.602a25.88 25.88 0 0 1 3.847 7.56 11.959 11.959 0 0 0 3.158-7.118A7.968 7.968 0 0 0 24 16M6.36 8.852l-.045.061a11.936 11.936 0 0 0-2.27 6.041A7.947 7.947 0 0 0 8 16a7.988 7.988 0 0 0 6.402-3.201A23.921 23.921 0 0 0 6.36 8.852m10.832-4.794.062.146A9.979 9.979 0 0 1 18 8a9.96 9.96 0 0 1-.987 4.338c.944.818 1.83 1.704 2.65 2.65A9.944 9.944 0 0 1 24 14c1.376 0 2.711.279 3.94.806-.558-5.674-5.072-10.188-10.748-10.748m-2.236-.013-.164.015a11.956 11.956 0 0 0-6.954 3.143 25.913 25.913 0 0 1 7.56 3.845C15.786 10.11 16 9.08 16 8a7.96 7.96 0 0 0-1.044-3.955"/></svg>
